assets/Woman vampire/Medium-Light/Flat/woman_vampire_flat_medium-light.svg

<svg width="32" height="32" viewBox="0 0 32 32" fill="none" xmlns="http://www.w3.org/2000/svg">
<path d="M15.92 8.43005C11.82 8.43005 8.10005 9.09005 5.40005 11.7701C5.14005 12.0301 5.01005 12.4001 5.08005 12.7701C5.47005 15.0601 6.58005 17.1701 8.28005 18.8201C10.34 20.8101 13.06 21.9101 15.92 21.9101C18.78 21.9101 21.5 20.8101 23.56 18.8201C25.26 17.1801 26.37 15.0701 26.76 12.7701C26.82 12.4101 26.7 12.0301 26.44 11.7701C23.74 9.09005 20.02 8.43005 15.92 8.43005Z" fill="#321B41"/>
<path d="M15.9299 7.43005C12.0861 7.43005 8.57257 8.88328 5.92993 11.2786C6.12012 16.6405 10.5245 20.9301 15.9299 20.9301C21.3353 20.9301 25.7397 16.6405 25.9299 11.2786C23.2773 8.88328 19.7738 7.43005 15.9299 7.43005Z" fill="#F92F60"/>
<path d="M9 16.0996C9 16.5907 9.39056 16.9898 9.87124 16.9898L22.1288 17C22.6094 17 23 16.601 23 16.1098V9.24421C23 5.28447 19.8956 2.01026 16.03 2.00002C12.1545 1.98979 9 5.20261 9 9.16236V16.0996Z" fill="#212121"/>
<path d="M15.9399 15.33C13.1799 15.33 10.93 16.4 9 18.19L8 24.095L9 30H12.75L16.0117 29L19.25 30H23L24 24.075L23 18.15C21.09 16.38 18.6799 15.33 15.9399 15.33Z" fill="#321B41"/>
<path d="M15.6324 19.0247C15.6461 18.9571 15.6023 18.8912 15.5347 18.8775C15.467 18.8638 15.4011 18.9076 15.3875 18.9752L14.3775 23.9752C14.3638 24.0429 14.4076 24.1088 14.4752 24.1225C14.5429 24.1361 14.6088 24.0924 14.6225 24.0247L15.6324 19.0247Z" fill="#9B9B9B"/>
<path d="M16.6225 18.9755C16.609 18.9078 16.5431 18.8639 16.4755 18.8775C16.4078 18.891 16.3639 18.9568 16.3775 19.0245L17.3775 24.0245C17.391 24.0921 17.4568 24.136 17.5245 24.1225C17.5921 24.109 17.636 24.0431 17.6225 23.9755L16.6225 18.9755Z" fill="#9B9B9B"/>
<path d="M12.9541 16.3199L15.801 20.7099C15.8929 20.8499 16.1071 20.8499 16.199 20.7099L19.0765 16.3299L19.25 16.1999V29.9999L12.75 30L12.7704 16.1899L12.9541 16.3199Z" fill="#F8312F"/>
<path d="M13.2836 24.74H13.2734L14.6876 16H17.2L18.6331 24.36L18.7452 24.88C18.7859 25.11 18.5618 25.31 18.3274 25.24C17.8587 25.1 17.3288 25.21 16.962 25.57C16.4322 26.09 15.5864 26.09 15.0566 25.57C14.6694 25.19 14.0988 25.09 13.6199 25.27C13.4263 25.34 13.2225 25.16 13.2531 24.95L13.2836 24.74Z" fill="#D3D3D3"/>
<path d="M13.4688 20.01L15.6659 18.13C15.8583 17.97 16.1417 17.97 16.3341 18.13L18.5312 20.01C18.8349 20.22 19.25 20.01 19.25 19.64V15.86C18.2477 15.47 17.1441 15.16 16 15.16C14.8559 15.16 13.7625 15.47 12.75 15.86V19.64C12.75 20.01 13.1651 20.22 13.4688 20.01Z" fill="#E6E6E6"/>
<path d="M9.47705 10.8178C9.89531 11.6514 10.2837 12.2174 11.1899 12.2174L10.9708 8.87273C10.1343 8.24496 9.38742 7.79214 9.09862 7.73039C8.21229 7.52456 8.96915 9.81953 9.47705 10.8178Z" fill="#E4B29A"/>
<path d="M22.4292 10.8178C22.0109 11.6514 21.6225 12.2174 20.7163 12.2174L20.9354 8.87273C21.7719 8.24496 22.5188 7.79214 22.8076 7.73039C23.694 7.52456 22.9371 9.81953 22.4292 10.8178Z" fill="#E4B29A"/>
<path d="M10.75 8.03406C10.7958 7.2919 11.004 6.56886 11.36 5.91606C11.3736 5.89143 11.395 5.87198 11.4208 5.8607C11.4465 5.84942 11.4753 5.84695 11.5026 5.85367C11.5299 5.86038 11.5543 5.87591 11.5719 5.89785C11.5895 5.9198 11.5994 5.94693 11.6 5.97506V6.36106C11.6024 6.65414 11.7207 6.93436 11.9291 7.14048C12.1374 7.34661 12.4189 7.46186 12.712 7.46106H19.121C19.4141 7.46186 19.6956 7.34661 19.904 7.14048C20.1124 6.93436 20.2307 6.65414 20.233 6.36106V5.93606C20.2335 5.90785 20.2432 5.88057 20.2607 5.85846C20.2783 5.83636 20.3026 5.82066 20.33 5.81382C20.3573 5.80698 20.3862 5.80937 20.4121 5.82062C20.438 5.83188 20.4594 5.85137 20.473 5.87606C20.9086 6.66876 21.1231 7.56401 21.094 8.46806C21.028 9.91906 21.026 11.0971 20.97 11.9681C20.9486 12.5947 20.802 13.2107 20.5388 13.7797C20.2757 14.3488 19.9014 14.8595 19.4379 15.2817C18.9744 15.704 18.4311 16.0292 17.84 16.2382C17.2489 16.4473 16.6219 16.536 15.996 16.4991C14.731 16.5479 13.4955 16.1089 12.5451 15.2727C11.5946 14.4365 11.0017 13.267 10.889 12.0061C10.839 11.9021 10.748 8.20306 10.75 8.03406Z" fill="#EEBFAA"/>
<path d="M13.2801 9.14001C13.8601 9.14001 14.3301 9.54001 14.6301 9.99001C14.4237 10.0511 14.2225 10.1087 14.0235 10.1657C13.538 10.3047 13.0667 10.4398 12.5701 10.61L12.0801 10.17C11.8801 9.99001 11.8901 9.66001 12.1101 9.50001C12.4401 9.27001 12.8701 9.14001 13.2801 9.14001Z" fill="black"/>
<path d="M18.4999 9.14001C17.9299 9.14001 17.4499 9.54001 17.1599 9.99001C17.3819 10.0566 17.6 10.1192 17.8162 10.1813C18.2816 10.3149 18.7388 10.4461 19.2099 10.61L19.6999 10.17C19.9099 9.98001 19.8899 9.66001 19.6699 9.50001C19.3399 9.27001 18.9099 9.14001 18.4999 9.14001Z" fill="black"/>
<path d="M12.1401 10.31C12.2901 9.7 12.8401 9.25 13.5001 9.25C14.1901 9.25 14.7501 9.74 14.8801 10.39C14.9101 10.53 14.7901 10.66 14.6501 10.66H12.4101C12.2301 10.66 12.1001 10.49 12.1401 10.31Z" fill="white"/>
<path d="M19.6699 10.31C19.5199 9.7 18.9699 9.25 18.3099 9.25C17.6299 9.25 17.0599 9.74 16.9299 10.38C16.8999 10.52 17.0199 10.65 17.1599 10.65H19.3999C19.5799 10.65 19.7099 10.48 19.6699 10.31Z" fill="white"/>
<path d="M19.1801 8.91954C19.2301 8.95954 19.2901 8.97954 19.3501 8.97954C19.4401 8.97954 19.5201 8.94954 19.5601 8.86954C19.6501 8.73954 19.6301 8.56954 19.5101 8.47954C19.4801 8.44954 18.7201 7.88954 17.6401 8.01954C17.4901 8.03954 17.3801 8.17954 17.4001 8.32954C17.4201 8.47954 17.5601 8.58954 17.7101 8.56954C18.5018 8.47854 19.0617 8.84304 19.1635 8.90935C19.1736 8.9159 19.1801 8.91954 19.1801 8.91954Z" fill="#212121"/>
<path d="M12.24 8.86951C12.3 8.93951 12.38 8.97951 12.46 8.97951C12.52 8.97951 12.58 8.96951 12.63 8.92951C12.63 8.91951 13.22 8.47951 14.1 8.57951C14.25 8.59951 14.39 8.48951 14.4 8.33951C14.42 8.17951 14.31 8.04951 14.16 8.02951C13.1036 7.90466 12.3792 8.42544 12.2969 8.48462C12.2935 8.48706 12.29 8.48951 12.29 8.48951C12.17 8.57951 12.15 8.74951 12.24 8.86951Z" fill="#212121"/>
<path d="M12.8101 10.42C12.8101 9.92002 13.2101 9.52002 13.7101 9.52002C14.2101 9.52002 14.6101 9.92002 14.6101 10.42C14.6101 10.5 14.6001 10.58 14.5701 10.66H12.8401C12.8201 10.58 12.8101 10.5 12.8101 10.42Z" fill="#F92F60"/>
<path d="M19 10.42C19 9.92002 18.6 9.52002 18.1 9.52002C17.61 9.52002 17.21 9.92002 17.21 10.42C17.21 10.5 17.22 10.58 17.24 10.66H18.97C18.99 10.58 19 10.5 19 10.42Z" fill="#F92F60"/>
<path d="M13.71 9.91003C13.99 9.91003 14.22 10.14 14.22 10.42C14.22 10.5 14.2 10.58 14.17 10.66H13.26C13.22 10.59 13.2 10.51 13.2 10.42C13.2 10.14 13.43 9.91003 13.71 9.91003Z" fill="black"/>
<path d="M18.1001 9.91003C17.8201 9.91003 17.5901 10.14 17.5901 10.42C17.5901 10.5 17.6101 10.58 17.6401 10.66H18.5501C18.5901 10.59 18.6101 10.51 18.6101 10.42C18.6101 10.14 18.3801 9.91003 18.1001 9.91003Z" fill="black"/>
<path d="M13.56 10.06C13.56 10.1484 13.4884 10.22 13.4 10.22C13.3116 10.22 13.24 10.1484 13.24 10.06C13.24 9.97166 13.3116 9.90002 13.4 9.90002C13.4884 9.90002 13.56 9.97166 13.56 10.06Z" fill="white"/>
<path d="M17.9899 10.06C17.9899 10.1484 17.9183 10.22 17.8299 10.22C17.7416 10.22 17.6699 10.1484 17.6699 10.06C17.6699 9.97166 17.7416 9.90002 17.8299 9.90002C17.9183 9.90002 17.9899 9.97166 17.9899 10.06Z" fill="white"/>
<path d="M15.6435 10.2775L15.1492 11.9575C15.0447 12.2975 15.2918 12.6475 15.634 12.6475H16.366C16.7082 12.6475 16.9553 12.2975 16.8508 11.9575L16.3565 10.2775C16.2519 9.9075 15.7576 9.9075 15.6435 10.2775Z" fill="#D19479"/>
<path d="M14.9594 14.3729C15.2658 14.5488 15.6226 14.6514 15.9995 14.6514C16.3741 14.6514 16.7239 14.5556 17.0247 14.3874L17.2032 14L16.8721 13.7618C16.6007 13.8327 16.3099 13.8714 16.0099 13.8714C15.6971 13.8714 15.3944 13.8293 15.1094 13.7526L14.7998 14L14.9594 14.3729Z" fill="#990838"/>
<path d="M16.8717 13.76L17.1717 14.9906C17.1917 15.0506 17.2417 15.0906 17.3017 15.0906C17.3617 15.0906 17.4217 15.0506 17.4317 14.9906L17.7617 13.6706L17.7575 13.6685C17.7634 13.5805 17.6837 13.4976 17.5931 13.5001C17.5646 13.4993 17.5343 13.5058 17.5039 13.5214C17.4226 13.5635 17.3378 13.6023 17.25 13.6375L16.8717 13.76Z" fill="white"/>
<path d="M14.55 14.9906L14.2359 13.7343C14.1652 13.6213 14.2769 13.482 14.3982 13.5019C14.4295 13.4982 14.4628 13.5036 14.495 13.5214C14.5776 13.5621 14.6627 13.5998 14.75 13.6341L15.11 13.75L14.81 14.9906C14.79 15.0506 14.74 15.0906 14.68 15.0906C14.62 15.0906 14.56 15.0506 14.55 14.9906Z" fill="white"/>
<path d="M26.23 22.78C26.75 24.46 27.01 26.21 27 27.97L26.98 30H23V18.16C24.33 19.39 25.66 20.97 26.23 22.78Z" fill="#533566"/>
<path d="M5.8 22.8099L5.82 22.7299C6.39 20.9499 7.7 19.3999 9 18.1899V29.9999H5V27.9299C5 26.1899 5.27 24.4699 5.8 22.8099Z" fill="#533566"/>
<path d="M15.6324 19.0247C15.6461 18.9571 15.6023 18.8912 15.5347 18.8775C15.467 18.8638 15.4011 18.9076 15.3875 18.9752L14.3775 23.9752C14.3638 24.0429 14.4076 24.1088 14.4752 24.1225C14.5429 24.1361 14.6088 24.0924 14.6225 24.0247L15.6324 19.0247Z" fill="#9B9B9B"/>
<path d="M16.6225 18.9755C16.609 18.9078 16.5431 18.8639 16.4755 18.8775C16.4078 18.891 16.3639 18.9568 16.3775 19.0245L17.3775 24.0245C17.391 24.0921 17.4568 24.136 17.5245 24.1225C17.5921 24.109 17.636 24.0431 17.6225 23.9755L16.6225 18.9755Z" fill="#9B9B9B"/>
</svg>

<svg xmlns="http://www.w3.org/2000/svg" width="32" height="32" fill="none"><path fill="#321B41" d="M15.92 8.43c-4.1 0-7.82.66-10.52 3.34-.26.26-.39.63-.32 1 .39 2.29 1.5 4.4 3.2 6.05 2.06 1.99 4.78 3.09 7.64 3.09 2.86 0 5.58-1.1 7.64-3.09 1.7-1.64 2.81-3.75 3.2-6.05.06-.36-.06-.74-.32-1-2.7-2.68-6.42-3.34-10.52-3.34Z"/><path fill="#F92F60" d="M15.93 7.43a14.846 14.846 0 0 0-10 3.849c.19 5.361 4.595 9.651 10 9.651s9.81-4.29 10-9.651a14.864 14.864 0 0 0-10-3.849Z"/><path fill="#212121" d="M9 16.1c0 .49.39.89.871.89L22.13 17c.48 0 .871-.399.871-.89V9.244C23 5.284 19.896 2.01 16.03 2 12.154 1.99 9 5.203 9 9.162V16.1Z"/><path fill="#321B41" d="M15.94 15.33c-2.76 0-5.01 1.07-6.94 2.86l-1 5.905L9 30h3.75l3.262-1 3.238 1H23l1-5.925-1-5.925c-1.91-1.77-4.32-2.82-7.06-2.82Z"/><path fill="#9B9B9B" d="M15.632 19.025a.125.125 0 0 0-.245-.05l-1.01 5a.125.125 0 1 0 .245.05l1.01-5ZM16.622 18.976a.125.125 0 1 0-.244.049l1 5a.125.125 0 0 0 .244-.05l-1-5Z"/><path fill="#F8312F" d="m12.954 16.32 2.847 4.39c.092.14.306.14.398 0l2.877-4.38.174-.13V30h-6.5l.02-13.81.184.13Z"/><path fill="#D3D3D3" d="M13.284 24.74h-.01L14.687 16H17.2l1.433 8.36.112.52c.04.23-.183.43-.418.36a1.385 1.385 0 0 0-1.365.33c-.53.52-1.376.52-1.905 0a1.373 1.373 0 0 0-1.437-.3c-.194.07-.397-.11-.367-.32l.03-.21Z"/><path fill="#E6E6E6" d="m13.469 20.01 2.197-1.88a.525.525 0 0 1 .668 0l2.197 1.88c.304.21.719 0 .719-.37v-3.78c-1.002-.39-2.106-.7-3.25-.7-1.144 0-2.238.31-3.25.7v3.78c0 .37.415.58.719.37Z"/><path fill="#E4B29A" d="M9.477 10.818c.418.833.807 1.4 1.713 1.4l-.22-3.345c-.836-.628-1.583-1.08-1.871-1.143-.887-.205-.13 2.09.378 3.088ZM22.43 10.818c-.42.833-.808 1.4-1.714 1.4l.22-3.345c.836-.628 1.583-1.08 1.872-1.143.886-.205.13 2.09-.379 3.088Z"/><path fill="#EEBFAA" d="M10.75 8.034a5.077 5.077 0 0 1 .61-2.118.128.128 0 0 1 .24.06v.385a1.109 1.109 0 0 0 1.112 1.1h6.409a1.11 1.11 0 0 0 1.112-1.1v-.425a.129.129 0 0 1 .097-.122.128.128 0 0 1 .143.062c.436.793.65 1.688.621 2.592-.066 1.451-.068 2.63-.124 3.5a4.697 4.697 0 0 1-3.13 4.27 4.7 4.7 0 0 1-1.844.261 4.936 4.936 0 0 1-5.107-4.493c-.05-.104-.141-3.803-.139-3.972Z"/><path fill="#000" d="M13.28 9.14c.58 0 1.05.4 1.35.85-.206.061-.408.119-.607.176-.485.139-.956.274-1.453.444l-.49-.44c-.2-.18-.19-.51.03-.67.33-.23.76-.36 1.17-.36ZM18.5 9.14c-.57 0-1.05.4-1.34.85.222.067.44.13.656.191.466.134.923.265 1.394.429l.49-.44c.21-.19.19-.51-.03-.67-.33-.23-.76-.36-1.17-.36Z"/><path fill="#fff" d="M12.14 10.31c.15-.61.7-1.06 1.36-1.06.69 0 1.25.49 1.38 1.14.03.14-.09.27-.23.27h-2.24c-.18 0-.31-.17-.27-.35ZM19.67 10.31c-.15-.61-.7-1.06-1.36-1.06-.68 0-1.25.49-1.38 1.13-.03.14.09.27.23.27h2.24c.18 0 .31-.17.27-.34Z"/><path fill="#212121" d="M19.18 8.92c.05.04.11.06.17.06.09 0 .17-.03.21-.11.09-.13.07-.3-.05-.39-.03-.03-.79-.59-1.87-.46a.28.28 0 0 0-.24.31c.02.15.16.26.31.24a2.22 2.22 0 0 1 1.453.34l.017.01ZM12.24 8.87c.06.07.14.11.22.11.06 0 .12-.01.17-.05 0-.01.59-.45 1.47-.35.15.02.29-.09.3-.24a.274.274 0 0 0-.24-.31 2.716 2.716 0 0 0-1.863.455l-.007.005a.27.27 0 0 0-.05.38Z"/><path fill="#F92F60" d="M12.81 10.42c0-.5.4-.9.9-.9s.9.4.9.9c0 .08-.01.16-.04.24h-1.73a.986.986 0 0 1-.03-.24ZM19 10.42a.896.896 0 1 0-1.76.24h1.73c.02-.08.03-.16.03-.24Z"/><path fill="#000" d="M13.71 9.91c.28 0 .51.23.51.51 0 .08-.02.16-.05.24h-.91a.512.512 0 0 1 .45-.75ZM18.1 9.91c-.28 0-.51.23-.51.51 0 .08.02.16.05.24h.91a.512.512 0 0 0-.45-.75Z"/><path fill="#fff" d="M13.56 10.06a.16.16 0 1 1-.32 0 .16.16 0 0 1 .32 0ZM17.99 10.06a.16.16 0 1 1-.32 0 .16.16 0 0 1 .32 0Z"/><path fill="#D19479" d="m15.643 10.277-.494 1.68c-.104.34.143.69.485.69h.732c.342 0 .59-.35.485-.69l-.494-1.68c-.105-.37-.6-.37-.713 0Z"/><path fill="#990838" d="M14.96 14.373a2.094 2.094 0 0 0 2.065.014l.178-.387-.33-.238a3.466 3.466 0 0 1-1.763-.01L14.8 14l.16.373Z"/><path fill="#fff" d="m16.872 13.76.3 1.23c.02.06.07.1.13.1s.12-.04.13-.1l.33-1.32-.005-.002a.164.164 0 0 0-.164-.168.183.183 0 0 0-.09.021c-.08.042-.165.081-.253.116l-.378.123ZM14.55 14.99l-.314-1.256c-.07-.113.04-.252.162-.232a.16.16 0 0 1 .097.02c.083.04.168.078.255.112l.36.116-.3 1.24c-.02.06-.07.1-.13.1s-.12-.04-.13-.1Z"/><path fill="#533566" d="M26.23 22.78c.52 1.68.78 3.43.77 5.19L26.98 30H23V18.16c1.33 1.23 2.66 2.81 3.23 4.62ZM5.8 22.81l.02-.08C6.39 20.95 7.7 19.4 9 18.19V30H5v-2.07c0-1.74.27-3.46.8-5.12Z"/><path fill="#9B9B9B" d="M15.632 19.025a.125.125 0 0 0-.245-.05l-1.01 5a.125.125 0 1 0 .245.05l1.01-5ZM16.622 18.976a.125.125 0 1 0-.244.049l1 5a.125.125 0 0 0 .244-.05l-1-5Z"/></svg>
